X:1
T:Szálljatok le
C:Traditional
Z:Public Domain
L:1/4
M:4/4
K:C
V:1 treble 
%%MIDI program 52
V:1
"C" G3/2 F/ E E | E3/2 D/ C C |"F" A/ A3/2 G/ F3/2 |"G" E3/2 F/ G z |"C" G F E/ E3/2 | %5
w: Száll- ja- tok le,|száll- ja- tok le,|ka- rá- cso- nyi|an- gya- lok,|Zör- ges- se- tek|
 E3/2 D/ C C |"F" A A G/ F3/2 |"G" E3/2 F/ G z |"F" F F E D |"C" E E D C |"G" D D C B, | %11
w: má- ma es- te|min- den pi- ciny|ab- la- kot,|Pa- lo- tá- ba|és kuny- hó- ba|nagy ö- rö- möt|
"C" C D E z |"G" D C B, (C/B,/) |"Am" A, A, A, z |] %14
w: vi- gye- tek,|Bol- dog- sá- gos *|ün- ne- pet.|

